X: 9993
T: Devil's Way, The
R: jig
M: 6/8
K: Bminor
|:FBB FBB|Bcd ~f3|fgf edc|dBB fgf|
FBB FBB|Bcd ~f3|fgf edc|1 dBB B3:|2 dBB B2f||
|:fBB cdB|fBB cdB|cAA e2f|edc f2g|
fBB cdB|fBB cdB|cAA e2f|1 edc B2f:|2 edc B3||

